src/assets/img/about_factory/2020.svg

<svg width="338" height="111" viewBox="0 0 338 111" fill="none" xmlns="http://www.w3.org/2000/svg">
<path d="M76.9326 109H2.51855V92.8867L36.7959 56.8516C45.2432 47.2324 49.4668 39.5908 49.4668 33.9268C49.4668 29.3369 48.4658 25.8457 46.4639 23.4531C44.4619 21.0605 41.5566 19.8643 37.748 19.8643C33.9883 19.8643 30.9365 21.4756 28.5928 24.6982C26.249 27.8721 25.0771 31.8516 25.0771 36.6367H0.321289C0.321289 30.0938 1.95703 24.0635 5.22852 18.5459C8.5 12.9795 13.041 8.63379 18.8516 5.50879C24.6621 2.38379 31.1562 0.821289 38.334 0.821289C49.8574 0.821289 58.7197 3.48242 64.9209 8.80469C71.1709 14.127 74.2959 21.7686 74.2959 31.7295C74.2959 35.9287 73.5146 40.0303 71.9521 44.0342C70.3896 47.9893 67.9482 52.1641 64.6279 56.5586C61.3564 60.9043 56.0586 66.7393 48.7344 74.0635L34.9648 89.957H76.9326V109ZM163.432 65.4209C163.432 79.8252 160.185 90.9336 153.69 98.7461C147.245 106.559 138.139 110.465 126.371 110.465C114.506 110.465 105.326 106.534 98.832 98.6729C92.3379 90.8115 89.0908 79.7275 89.0908 65.4209V45.9385C89.0908 31.5342 92.3135 20.4258 98.7588 12.6133C105.253 4.80078 114.408 0.894531 126.225 0.894531C138.041 0.894531 147.196 4.8252 153.69 12.6865C160.185 20.5479 163.432 31.6562 163.432 46.0117V65.4209ZM138.749 42.7891C138.749 35.123 137.748 29.4102 135.746 25.6504C133.744 21.8418 130.57 19.9375 126.225 19.9375C121.977 19.9375 118.876 21.6953 116.923 25.2109C115.019 28.7266 113.993 34.0488 113.847 41.1777V68.4238C113.847 76.3828 114.848 82.2178 116.85 85.9287C118.852 89.5908 122.025 91.4219 126.371 91.4219C130.57 91.4219 133.671 89.6396 135.673 86.0752C137.675 82.4619 138.7 76.8223 138.749 69.1562V42.7891ZM250.663 109H176.249V92.8867L210.526 56.8516C218.974 47.2324 223.197 39.5908 223.197 33.9268C223.197 29.3369 222.196 25.8457 220.194 23.4531C218.192 21.0605 215.287 19.8643 211.479 19.8643C207.719 19.8643 204.667 21.4756 202.323 24.6982C199.979 27.8721 198.808 31.8516 198.808 36.6367H174.052C174.052 30.0938 175.688 24.0635 178.959 18.5459C182.23 12.9795 186.771 8.63379 192.582 5.50879C198.393 2.38379 204.887 0.821289 212.064 0.821289C223.588 0.821289 232.45 3.48242 238.651 8.80469C244.901 14.127 248.026 21.7686 248.026 31.7295C248.026 35.9287 247.245 40.0303 245.683 44.0342C244.12 47.9893 241.679 52.1641 238.358 56.5586C235.087 60.9043 229.789 66.7393 222.465 74.0635L208.695 89.957H250.663V109ZM337.162 65.4209C337.162 79.8252 333.915 90.9336 327.421 98.7461C320.976 106.559 311.869 110.465 300.102 110.465C288.236 110.465 279.057 106.534 272.562 98.6729C266.068 90.8115 262.821 79.7275 262.821 65.4209V45.9385C262.821 31.5342 266.044 20.4258 272.489 12.6133C278.983 4.80078 288.139 0.894531 299.955 0.894531C311.771 0.894531 320.927 4.8252 327.421 12.6865C333.915 20.5479 337.162 31.6562 337.162 46.0117V65.4209ZM312.479 42.7891C312.479 35.123 311.479 29.4102 309.477 25.6504C307.475 21.8418 304.301 19.9375 299.955 19.9375C295.707 19.9375 292.606 21.6953 290.653 25.2109C288.749 28.7266 287.724 34.0488 287.577 41.1777V68.4238C287.577 76.3828 288.578 82.2178 290.58 85.9287C292.582 89.5908 295.756 91.4219 300.102 91.4219C304.301 91.4219 307.401 89.6396 309.403 86.0752C311.405 82.4619 312.431 76.8223 312.479 69.1562V42.7891Z" fill="#626262" fill-opacity="0.26"/>
</svg>

<svg width="338" height="111" fill="none" xmlns="http://www.w3.org/2000/svg"><path d="M76.933 109H2.519V92.887l34.277-36.035c8.447-9.62 12.67-17.261 12.67-22.925 0-4.59-1-8.081-3.002-10.474-2.002-2.392-4.907-3.589-8.716-3.589-3.76 0-6.811 1.612-9.155 4.834-2.344 3.174-3.516 7.154-3.516 11.939H.321c0-6.543 1.636-12.573 4.908-18.091C8.5 12.98 13.04 8.634 18.852 5.509 24.662 2.384 31.156.82 38.334.82c11.523 0 20.386 2.661 26.587 7.984 6.25 5.322 9.375 12.964 9.375 22.925 0 4.199-.781 8.3-2.344 12.304-1.562 3.955-4.004 8.13-7.324 12.525-3.272 4.345-8.57 10.18-15.894 17.505l-13.77 15.893h41.969V109zm86.499-43.58c0 14.405-3.247 25.514-9.742 33.326-6.445 7.813-15.551 11.719-27.319 11.719-11.865 0-21.045-3.931-27.539-11.792-6.494-7.862-9.741-18.945-9.741-33.252V45.938c0-14.404 3.223-25.512 9.668-33.325C105.253 4.801 114.408.895 126.225.895c11.816 0 20.971 3.93 27.465 11.792 6.495 7.86 9.742 18.97 9.742 33.325V65.42zm-24.683-22.63c0-7.667-1.001-13.38-3.003-17.14-2.002-3.808-5.176-5.712-9.521-5.712-4.248 0-7.349 1.757-9.302 5.273-1.904 3.516-2.93 8.838-3.076 15.967v27.246c0 7.959 1.001 13.794 3.003 17.505 2.002 3.662 5.175 5.493 9.521 5.493 4.199 0 7.3-1.782 9.302-5.347 2.002-3.613 3.027-9.253 3.076-16.919V42.79zM250.663 109h-74.414V92.887l34.277-36.035c8.448-9.62 12.671-17.261 12.671-22.925 0-4.59-1.001-8.081-3.003-10.474-2.002-2.392-4.907-3.589-8.715-3.589-3.76 0-6.812 1.612-9.156 4.834-2.344 3.174-3.515 7.154-3.515 11.939h-24.756c0-6.543 1.636-12.573 4.907-18.091 3.271-5.566 7.812-9.912 13.623-13.037C198.393 2.384 204.887.82 212.064.82c11.524 0 20.386 2.661 26.587 7.984 6.25 5.322 9.375 12.964 9.375 22.925 0 4.199-.781 8.3-2.343 12.304-1.563 3.955-4.004 8.13-7.325 12.525-3.271 4.345-8.569 10.18-15.893 17.505l-13.77 15.893h41.968V109zm86.499-43.58c0 14.405-3.247 25.514-9.741 33.326-6.445 7.813-15.552 11.719-27.319 11.719-11.866 0-21.045-3.931-27.54-11.792-6.494-7.862-9.741-18.945-9.741-33.252V45.938c0-14.404 3.223-25.512 9.668-33.325C278.983 4.801 288.139.895 299.955.895s20.972 3.93 27.466 11.792c6.494 7.86 9.741 18.97 9.741 33.325V65.42zm-24.683-22.63c0-7.667-1-13.38-3.002-17.14-2.002-3.808-5.176-5.712-9.522-5.712-4.248 0-7.349 1.757-9.302 5.273-1.904 3.516-2.929 8.838-3.076 15.967v27.246c0 7.959 1.001 13.794 3.003 17.505 2.002 3.662 5.176 5.493 9.522 5.493 4.199 0 7.299-1.782 9.301-5.347 2.002-3.613 3.028-9.253 3.076-16.919V42.79z" fill="#626262" fill-opacity=".26"/></svg>
